symbols-de/shields/motorway_4x4.svg

<?xml version="1.0" encoding="UTF-8" standalone="no"?>
<svg
   xmlns:dc="http://purl.org/dc/elements/1.1/"
   xmlns:cc="http://creativecommons.org/ns#"
   xmlns:rdf="http://www.w3.org/1999/02/22-rdf-syntax-ns#"
   xmlns:svg="http://www.w3.org/2000/svg"
   xmlns="http://www.w3.org/2000/svg"
   xmlns:sodipodi="http://sodipodi.sourceforge.net/DTD/sodipodi-0.dtd"
   xmlns:inkscape="http://www.inkscape.org/namespaces/inkscape"
   width="100%"
   height="100%"
   viewBox="0 0 33.0 42.0"
   id="svg2"
   version="1.1"
   inkscape:version="0.91 r13725"
   sodipodi:docname="autobahn_4x4.svg">
  <metadata
     id="metadata9">
    <rdf:RDF>
      <cc:Work
         rdf:about="">
        <dc:format>image/svg+xml</dc:format>
        <dc:type
           rdf:resource="http://purl.org/dc/dcmitype/StillImage" />
        <dc:title></dc:title>
      </cc:Work>
    </rdf:RDF>
  </metadata>
  <defs
     id="defs7" />
  <sodipodi:namedview
     pagecolor="#ffffff"
     bordercolor="#666666"
     borderopacity="1"
     objecttolerance="10"
     gridtolerance="10"
     guidetolerance="10"
     inkscape:pageopacity="0"
     inkscape:pageshadow="2"
     inkscape:window-width="1068"
     inkscape:window-height="767"
     id="namedview5"
     showgrid="false"
     inkscape:zoom="5.6190476"
     inkscape:cx="16.5"
     inkscape:cy="21.088983"
     inkscape:window-x="576"
     inkscape:window-y="219"
     inkscape:window-maximized="0"
     inkscape:current-layer="svg2" />
  <path
     style="fill:#365eaf;fill-opacity:1;stroke:#0528a2;stroke-width:1;stroke-miterlimit:4;stroke-dasharray:none;stroke-opacity:1"
     d="m 16.5,0.49999877 c -0.22939,0 -0.343751,0.0033 -0.343751,0.01172 L 1.016827,2.2812497 c -0.3440861,0.08485 -0.51682702,0.213113 -0.51682702,0.382813 0,12.2239583 0,24.4479163 0,36.6718753 0,0.169699 0.17274092,0.297965 0.51682702,0.382812 l 15.139422,1.769531 c 0,0.0085 0.114364,0.01172 0.343751,0.01172 0.22939,0 0.34375,-0.0033 0.34375,-0.01172 L 31.983172,39.71875 c 0.344087,-0.08485 0.516827,-0.213113 0.516827,-0.382812 0,-12.223958 0,-24.447917 0,-36.6718753 0,-0.1697 -0.17274,-0.297965 -0.516827,-0.382813 L 16.84375,0.51171877 c 0,-0.0085 -0.114363,-0.01172 -0.34375,-0.01172 z"
     id="path6"
     inkscape:connector-curvature="0"
     sodipodi:nodetypes="sccccccsccccccs" />
</svg>

<?xml version="1.0" encoding="UTF-8"?>
<svg xmlns="http://www.w3.org/2000/svg" xmlns:xlink="http://www.w3.org/1999/xlink" width="34pt" height="54pt" viewBox="0 0 34 54" version="1.1">
<g id="surface1">
<path style="fill-rule:nonzero;fill:rgb(21.176471%,36.862745%,68.627451%);fill-opacity:1;stroke-width:1;stroke-linecap:butt;stroke-linejoin:miter;stroke:rgb(1.960784%,15.686275%,63.529412%);stroke-opacity:1;stroke-miterlimit:4;" d="M 16.5 0.501302 C 16.268727 0.501302 16.154986 0.50434 16.154986 0.510417 L 1.016085 2.281684 C 0.671071 2.366753 0.50046 2.494358 0.50046 2.664497 C 0.50046 14.887153 0.50046 27.112847 0.50046 39.335503 C 0.50046 39.505642 0.671071 39.633247 1.016085 39.718316 L 16.154986 41.489583 C 16.154986 41.49566 16.268727 41.498698 16.5 41.498698 C 16.731273 41.498698 16.845014 41.49566 16.845014 41.489583 L 31.983915 39.718316 C 32.328929 39.633247 32.49954 39.505642 32.49954 39.335503 C 32.49954 27.112847 32.49954 14.887153 32.49954 2.664497 C 32.49954 2.494358 32.328929 2.366753 31.983915 2.281684 L 16.845014 0.510417 C 16.845014 0.50434 16.731273 0.501302 16.5 0.501302 Z M 16.5 0.501302 " transform="matrix(1.030303,0,0,1.285714,0,0)"/>
</g>
</svg>
